;FLAVOR:Marlin
;TIME:776
;Filament used: 1.79963m
;Layer height: 0.2
;MINX:74.776
;MINY:87.739
;MINZ:0.2
;MAXX:160.211
;MAXY:147.271
;MAXZ:5.4
;Generated with Cura_SteamEngine 5.4.0
M140 S60
M105
M190 S60
M104 S200
M105
M109 S200
M82 ;absolute extrusion mode
G28 ;home
G92 E0 ;Reset Extruder
G1 Z4.0 F3000 ;Move Z Axis up
G92 E0 ;Reset Extruder
G1 X1.1 Y20 Z0.28 F5000.0 ;Move to start position
G1 X1.1 Y80.0 Z0.28 F1500.0 E10 ;Draw the first line
G1 X1.4 Y80.0 Z0.28 F5000.0 ;Move to side a little
G1 X1.4 Y20 Z0.28 F1500.0 E20 ;Draw the second line
G92 E0 ;Reset Extruder
G1 Z2.0 F3000 ;Move Z Axis up
G92 E0
G92 E0
G1 F2700 E-1.5
;LAYER_COUNT:25
;LAYER:0
M107
M204 S5000
G1 F600 Z0.6
G0 F12000 X96.734 Y89.36 Z0.6
M204 S3000
;TYPE:SKIRT
G1 F600 Z0.2
G1 F2700 E0
G1 F3600 X97.197 Y88.93 E0.02102
G1 X97.719 Y88.58 E0.04192
G1 X98.175 Y88.361 E0.05874
G1 X98.911 Y88.144 E0.08427
G1 X99.676 Y88.057 E0.10987
G1 X101.574 Y88.057 E0.173
G1 X103.535 Y88.087 E0.23823
G1 X106.251 Y88.094 E0.32857
G1 X108.656 Y88.057 E0.40857
G1 X109.748 Y88.057 E0.44489
G1 X112.213 Y88.097 E0.52688
G1 X116.494 Y88.057 E0.66928
G1 X118.076 Y88.057 E0.72189
G1 X119.053 Y88.071 E0.75439
G1 X121.749 Y88.071 E0.84406
G1 X124.498 Y87.994 E0.93553
G1 X127.195 Y87.841 E1.02538
G1 X128.557 Y87.739 E1.0708
G1 X129.541 Y87.773 E1.10355
G1 X130.259 Y87.829 E1.12751
G1 X131.049 Y87.932 E1.154
G1 X132.11 Y88.171 E1.19018
G1 X133.051 Y88.503 E1.22337
G1 X133.618 Y88.771 E1.24422
G1 X134.341 Y89.155 E1.27145
G1 X135.027 Y89.56 E1.29795
G1 X135.692 Y90.064 E1.3257
G1 X136.423 Y90.759 E1.35925
G1 X137.357 Y91.805 E1.40589
G1 X138.041 Y92.887 E1.44847
G1 X138.679 Y94.258 E1.49876
G1 X139.174 Y95.372 E1.53931
G1 X140.347 Y97.824 E1.62971
G1 X141.596 Y100.255 E1.72061
G1 X142.902 Y102.63 E1.81076
G1 X144.299 Y105.007 E1.90246
G1 X145.713 Y107.266 E1.9911
G1 X147.211 Y109.515 E2.08098
G1 X148.814 Y111.78 E2.17327
G1 X150.419 Y113.918 E2.26219
G1 X152.106 Y116.036 E2.35225
G1 X153.872 Y118.129 E2.44333
G1 X155.661 Y120.134 E2.53271
G1 X157.069 Y121.616 E2.6007
G1 X158.019 Y122.653 E2.64747
G1 X158.588 Y123.409 E2.67894
G1 X159.021 Y124.105 E2.70621
G1 X159.492 Y125.122 E2.74348
G1 X159.922 Y126.324 E2.78594
G1 X160.121 Y127.154 E2.81433
G1 X160.211 Y130.212 E2.91609
G1 X160.181 Y131.286 E2.95182
G1 X160.093 Y132.447 E2.99055
G1 X160.01 Y133.086 E3.01198
G1 X159.891 Y133.748 E3.03435
G1 X159.645 Y134.722 E3.06776
G1 X159.193 Y135.87 E3.1088
G1 X158.627 Y136.942 E3.14912
G1 X157.668 Y138.368 E3.20627
G1 X157.27 Y138.854 E3.22717
G1 X156.729 Y139.349 E3.25156
G1 X155.854 Y140.062 E3.2891
G1 X155.344 Y140.43 E3.31002
G1 X154.766 Y140.787 E3.33261
G1 X153.872 Y141.253 E3.36614
G1 X153.016 Y141.555 E3.39633
G1 X150.368 Y142.425 E3.48904
G1 X147.847 Y143.331 E3.57814
G1 X145.307 Y144.328 E3.66889
G1 X142.802 Y145.393 E3.75943
G1 X141.715 Y145.894 E3.79924
G1 X141.617 Y145.93 E3.80271
G1 X140.41 Y146.476 E3.84677
G1 X139.813 Y146.682 E3.86777
G1 X139.245 Y146.785 E3.88697
G1 X138.486 Y146.797 E3.91222
G1 X137.77 Y146.737 E3.93612
G1 X135.063 Y146.548 E4.02637
G1 X132.348 Y146.436 E4.11675
G1 X129.63 Y146.4 E4.20716
G1 X126.909 Y146.442 E4.29767
G1 X124.191 Y146.56 E4.38816
G1 X121.482 Y146.754 E4.47849
G1 X118.755 Y147.028 E4.56965
G1 X117.046 Y147.233 E4.6269
G1 X116.339 Y147.27 E4.65045
G1 X114.768 Y147.271 E4.7027
G1 X113.785 Y147.251 E4.7354
G1 X112.924 Y147.139 E4.76428
G1 X110.163 Y146.829 E4.85668
G1 X107.482 Y146.599 E4.94618
G1 X104.783 Y146.448 E5.03609
G1 X102.031 Y146.371 E5.12766
G1 X99.357 Y146.371 E5.2166
G1 X96.602 Y146.45 E5.30827
G1 X93.92 Y146.602 E5.39761
G1 X90.137 Y146.947 E5.52396
G1 X88.068 Y147.174 E5.59319
G1 X87.349 Y147.227 E5.61717
G1 X85.823 Y147.268 E5.66794
G1 X79.432 Y147.271 E5.8805
G1 X78.7 Y147.26 E5.90485
G1 X78.038 Y147.19 E5.92699
G1 X77.429 Y147.023 E5.948
G1 X76.854 Y146.762 E5.969
G1 X76.327 Y146.415 E5.98999
G1 X75.861 Y145.988 E6.01101
G1 X75.468 Y145.493 E6.03203
G1 X75.158 Y144.944 E6.053
G1 X74.939 Y144.352 E6.07399
G1 X74.816 Y143.757 E6.0942
G1 X74.779 Y143.304 E6.10932
G1 X74.776 Y123.921 E6.754
G1 X74.788 Y123.183 E6.77855
G1 X74.859 Y122.522 E6.80066
G1 X75.005 Y121.973 E6.81956
G1 X75.258 Y121.394 E6.84057
G1 X75.661 Y120.753 E6.86576
G1 X77.885 Y118.431 E6.9727
G1 X79.71 Y116.417 E7.06309
G1 X81.467 Y114.358 E7.15312
G1 X83.161 Y112.259 E7.24283
G1 X84.784 Y110.126 E7.33198
G1 X86.397 Y107.879 E7.42398
G1 X87.897 Y105.658 E7.51312
G1 X89.361 Y103.351 E7.60399
G1 X90.748 Y101.022 E7.69415
G1 X92.081 Y98.637 E7.78503
G1 X93.333 Y96.236 E7.87509
G1 X94.529 Y93.775 E7.9661
G1 X95.637 Y91.32 E8.05568
G1 X96.023 Y90.438 E8.0877
G1 X96.344 Y89.858 E8.10975
G1 X96.734 Y89.36 E8.13079
M204 S5000
G0 F12000 X97.008 Y89.651
M204 S3000
G1 F3600 X97.422 Y89.261 E8.14971
G1 X97.892 Y88.941 E8.16862
G1 X98.348 Y88.722 E8.18544
G1 X98.957 Y88.541 E8.20657
G1 X99.676 Y88.457 E8.23065
G1 X101.568 Y88.457 E8.29358
G1 X103.529 Y88.487 E8.35881
G1 X106.256 Y88.494 E8.44951
G1 X108.662 Y88.457 E8.52954
G1 X109.742 Y88.457 E8.56546
G1 X112.211 Y88.497 E8.64759
G1 X116.498 Y88.457 E8.79019
G1 X118.07 Y88.457 E8.84247
G1 X119.047 Y88.471 E8.87497
G1 X121.76 Y88.471 E8.9652
G1 X124.509 Y88.394 E9.05667
G1 X127.226 Y88.24 E9.14719
G1 X128.543 Y88.139 E9.19112
G1 X129.51 Y88.172 E9.2233
G1 X130.207 Y88.226 E9.24655
G1 X130.997 Y88.329 E9.27305
G1 X131.978 Y88.549 E9.30649
G1 X132.88 Y88.865 E9.33828
G1 X133.447 Y89.133 E9.35913
G1 X134.139 Y89.5 E9.38519
G1 X134.786 Y89.879 E9.41013
G1 X135.416 Y90.354 E9.43637
G1 X136.147 Y91.049 E9.46992
G1 X137.019 Y92.02 E9.51332
G1 X137.678 Y93.056 E9.55416
G1 X138.313 Y94.42 E9.6042
G1 X138.813 Y95.545 E9.64515
G1 X139.991 Y98.007 E9.73593
G1 X141.245 Y100.448 E9.8272
G1 X142.551 Y102.823 E9.91735
G1 X143.954 Y105.21 E10.00944
G1 X145.38 Y107.488 E10.09883
G1 X146.884 Y109.746 E10.18906
G1 X148.487 Y112.011 E10.28136
G1 X150.106 Y114.167 E10.37103
G1 X151.8 Y116.294 E10.46147
G1 X153.566 Y118.387 E10.55255
G1 X155.371 Y120.409 E10.6427
G1 X156.774 Y121.887 E10.71048
G1 X157.699 Y122.894 E10.75596
G1 X158.268 Y123.65 E10.78743
G1 X158.658 Y124.274 E10.81191
G1 X159.115 Y125.257 E10.84796
G1 X159.545 Y126.459 E10.89042
G1 X159.722 Y127.205 E10.91592
G1 X159.811 Y130.201 E11.01562
G1 X159.782 Y131.256 E11.05072
G1 X159.696 Y132.396 E11.08874
G1 X159.616 Y133.015 E11.1095
G1 X159.497 Y133.677 E11.13187
G1 X159.272 Y134.576 E11.1627
G1 X158.839 Y135.683 E11.20223
G1 X158.273 Y136.755 E11.24255
G1 X157.357 Y138.117 E11.29714
G1 X157 Y138.559 E11.31604
G1 X156.476 Y139.039 E11.33968
G1 X155.601 Y139.752 E11.37722
G1 X155.133 Y140.09 E11.39642
G1 X154.581 Y140.432 E11.41802
G1 X153.687 Y140.898 E11.45155
G1 X152.891 Y141.175 E11.47958
G1 X150.243 Y142.045 E11.57228
G1 X147.701 Y142.959 E11.66213
G1 X145.15 Y143.96 E11.75328
G1 X142.645 Y145.025 E11.84381
G1 X141.577 Y145.518 E11.88293
G1 X141.476 Y145.555 E11.88651
G1 X140.277 Y146.099 E11.9303
G1 X139.742 Y146.288 E11.94917
G1 X139.174 Y146.391 E11.96837
G1 X138.519 Y146.398 E11.99016
G1 X137.803 Y146.338 E12.01406
G1 X135.079 Y146.148 E12.10488
G1 X132.364 Y146.036 E12.19526
G1 X129.629 Y146 E12.28623
G1 X126.892 Y146.042 E12.37727
G1 X124.174 Y146.16 E12.46776
G1 X121.449 Y146.355 E12.55863
G1 X118.715 Y146.63 E12.65002
G1 X116.998 Y146.836 E12.70754
G1 X116.339 Y146.87 E12.72948
G1 X114.775 Y146.871 E12.7815
G1 X113.836 Y146.854 E12.81274
G1 X112.975 Y146.743 E12.84161
G1 X110.197 Y146.43 E12.93459
G1 X107.516 Y146.201 E13.02409
G1 X104.794 Y146.048 E13.11477
G1 X102.042 Y145.971 E13.20633
G1 X99.346 Y145.971 E13.296
G1 X96.591 Y146.05 E13.38767
G1 X93.892 Y146.203 E13.47759
G1 X90.093 Y146.549 E13.60446
G1 X88.038 Y146.775 E13.67323
G1 X87.338 Y146.827 E13.69657
G1 X85.823 Y146.868 E13.74698
G1 X79.437 Y146.871 E13.95938
G1 X78.739 Y146.862 E13.9826
G1 X78.141 Y146.803 E14.00258
G1 X77.591 Y146.657 E14.02151
G1 X77.071 Y146.426 E14.04043
G1 X76.595 Y146.118 E14.05929
G1 X76.172 Y145.737 E14.07823
G1 X75.815 Y145.294 E14.09715
G1 X75.532 Y144.802 E14.11603
G1 X75.33 Y144.27 E14.13495
G1 X75.215 Y143.724 E14.15351
G1 X75.178 Y143.271 E14.16863
G1 X75.176 Y123.927 E14.81201
G1 X75.186 Y123.223 E14.83543
G1 X75.246 Y122.625 E14.85542
G1 X75.392 Y122.076 E14.87431
G1 X75.623 Y121.557 E14.89321
G1 X75.976 Y121.003 E14.91506
G1 X78.174 Y118.708 E15.02075
G1 X80.006 Y116.686 E15.1115
G1 X81.771 Y114.618 E15.20193
G1 X83.472 Y112.51 E15.29202
G1 X85.109 Y110.359 E15.38193
G1 X86.722 Y108.112 E15.47392
G1 X88.235 Y105.872 E15.56383
G1 X89.705 Y103.556 E15.65507
G1 X91.092 Y101.227 E15.74522
G1 X92.436 Y98.822 E15.83686
G1 X93.688 Y96.421 E15.92692
G1 X94.889 Y93.95 E16.0183
G1 X96.002 Y91.485 E16.10826
G1 X96.375 Y90.629 E16.13931
G1 X96.661 Y90.102 E16.15925
G1 X97.008 Y89.651 E16.17818
M204 S5000
G0 F12000 X97.285 Y89.94
M204 S3000
G1 F3600 X97.65 Y89.59 E16.195
G1 X98.065 Y89.302 E16.2118
G1 X98.521 Y89.083 E16.22863
G1 X99.005 Y88.938 E16.24543
G1 X99.676 Y88.857 E16.26791
G1 X101.562 Y88.857 E16.33064
G1 X103.523 Y88.887 E16.39587
G1 X106.261 Y88.894 E16.48694
G1 X108.668 Y88.857 E16.567
G1 X109.736 Y88.857 E16.60253
G1 X112.209 Y88.897 E16.68479
G1 X116.502 Y88.857 E16.82758
G1 X118.064 Y88.857 E16.87953
G1 X119.041 Y88.871 E16.91203
G1 X121.771 Y88.871 E17.00283
G1 X124.52 Y88.794 E17.0943
G1 X127.257 Y88.639 E17.18548
G1 X128.53 Y88.539 E17.22795
G1 X129.479 Y88.571 E17.25953
G1 X130.156 Y88.623 E17.28211
G1 X130.911 Y88.72 E17.30743
G1 X131.847 Y88.927 E17.33932
G1 X132.709 Y89.227 E17.36967
G1 X133.276 Y89.495 E17.39053
G1 X133.938 Y89.846 E17.41545
G1 X134.546 Y90.199 E17.43884
G1 X135.141 Y90.644 E17.46355
G1 X135.851 Y91.318 E17.49611
G1 X136.682 Y92.235 E17.53727
G1 X137.315 Y93.225 E17.57635
G1 X137.947 Y94.582 E17.62614
G1 X138.452 Y95.718 E17.66749
G1 X139.635 Y98.19 E17.75864
G1 X140.894 Y100.641 E17.85029
G1 X142.2 Y103.016 E17.94043
G1 X143.609 Y105.413 E18.03291
G1 X145.047 Y107.71 E18.12305
G1 X146.557 Y109.977 E18.21364
G1 X148.16 Y112.242 E18.30593
G1 X149.793 Y114.416 E18.39637
G1 X151.494 Y116.552 E18.48719
G1 X153.26 Y118.645 E18.57827
G1 X155.081 Y120.684 E18.6692
G1 X156.479 Y122.158 E18.73677
G1 X157.404 Y123.165 E18.78224
G1 X157.93 Y123.863 E18.81131
G1 X158.296 Y124.443 E18.83412
G1 X158.739 Y125.392 E18.86896
G1 X159.156 Y126.551 E18.90992
G1 X159.323 Y127.255 E18.93399
G1 X159.411 Y130.19 E19.03165
G1 X159.383 Y131.226 E19.06612
G1 X159.299 Y132.345 E19.10345
G1 X159.222 Y132.944 E19.12353
G1 X159.103 Y133.606 E19.1459
G1 X158.884 Y134.479 E19.17584
G1 X158.485 Y135.497 E19.21221
G1 X157.941 Y136.532 E19.2511
G1 X157.044 Y137.868 E19.30462
G1 X156.73 Y138.264 E19.32143
G1 X156.223 Y138.729 E19.34431
G1 X155.348 Y139.442 E19.38185
G1 X154.922 Y139.75 E19.39933
G1 X154.37 Y140.092 E19.42093
G1 X153.555 Y140.52 E19.45155
G1 X152.766 Y140.795 E19.47934
G1 X150.118 Y141.665 E19.57204
G1 X147.555 Y142.587 E19.66264
G1 X144.994 Y143.592 E19.75414
G1 X142.477 Y144.662 E19.84511
G1 X141.438 Y145.143 E19.88319
G1 X141.327 Y145.184 E19.88712
G1 X140.141 Y145.723 E19.93045
G1 X139.666 Y145.895 E19.94725
G1 X139.169 Y145.991 E19.96409
G1 X138.552 Y145.999 E19.98461
G1 X137.836 Y145.939 E20.00851
G1 X135.095 Y145.748 E20.0999
G1 X132.38 Y145.636 E20.19028
G1 X129.628 Y145.6 E20.28182
G1 X126.875 Y145.642 E20.37339
G1 X124.157 Y145.76 E20.46388
G1 X121.416 Y145.956 E20.55528
G1 X118.675 Y146.232 E20.6469
G1 X116.95 Y146.439 E20.70469
G1 X116.339 Y146.47 E20.72504
G1 X114.781 Y146.471 E20.77686
G1 X113.887 Y146.457 E20.80659
G1 X113.026 Y146.347 E20.83546
G1 X110.231 Y146.031 E20.92902
G1 X107.55 Y145.803 E21.01851
G1 X104.805 Y145.648 E21.10996
G1 X102.053 Y145.571 E21.20152
G1 X99.335 Y145.571 E21.29192
G1 X96.58 Y145.65 E21.38359
G1 X93.864 Y145.804 E21.47407
G1 X90.049 Y146.151 E21.60148
G1 X88.008 Y146.376 E21.66978
G1 X87.327 Y146.427 E21.69249
G1 X85.823 Y146.468 E21.74254
G1 X79.442 Y146.471 E21.95477
G1 X78.744 Y146.462 E21.97799
G1 X78.24 Y146.415 E21.99482
G1 X77.75 Y146.29 E22.01164
G1 X77.286 Y146.089 E22.02846
G1 X76.86 Y145.818 E22.04525
G1 X76.481 Y145.483 E22.06208
G1 X76.16 Y145.092 E22.0789
G1 X75.905 Y144.656 E22.0957
G1 X75.721 Y144.185 E22.11252
G1 X75.614 Y143.691 E22.12933
G1 X75.577 Y143.238 E22.14445
G1 X75.576 Y123.933 E22.78654
G1 X75.586 Y123.229 E22.80995
G1 X75.633 Y122.725 E22.82679
G1 X75.759 Y122.236 E22.84358
G1 X75.961 Y121.772 E22.86042
G1 X76.293 Y121.25 E22.88099
G1 X78.463 Y118.985 E22.98532
G1 X80.302 Y116.955 E23.07642
G1 X82.075 Y114.878 E23.16725
G1 X83.783 Y112.761 E23.25772
G1 X85.434 Y110.592 E23.34839
G1 X87.047 Y108.345 E23.44038
G1 X88.573 Y106.086 E23.53105
G1 X90.049 Y103.761 E23.62265
G1 X91.436 Y101.432 E23.71281
G1 X92.791 Y99.007 E23.8052
G1 X94.043 Y96.606 E23.89527
G1 X95.249 Y94.125 E23.98702
G1 X96.367 Y91.65 E24.07734
G1 X96.742 Y90.789 E24.10858
G1 X96.98 Y90.343 E24.12539
G1 X97.285 Y89.94 E24.1422
M204 S5000
G1 F2700 E22.6422
G1 F600 Z0.6
;MESH:Untitled v1.stl
G0 F12000 X108.269 Y94.685 Z0.6
M204 S3000
;TYPE:WALL-INNER
G1 F600 Z0.2
G1 F2700 E24.1422
G1 F3133.5 X107.324 Y97.544 E24.27165
G1 F2972.5 X106.523 Y99.918 E24.38519
G1 F2898 X105.721 Y102.292 E24.50166
G1 F2822.3 X104.92 Y104.667 E24.62129
G1 F2755.1 X104.118 Y107.041 E24.7438
G1 F2691 X103.316 Y109.415 E24.86924
M204 S5000
G0 F12000 X108.733 Y94.105
G0 X109.945 Y94.101
G0 X115.318 Y108.988
G0 X115.509 Y108.923
M204 S3000
G1 F2660.1 X114.03 Y104.66 E25.09773
G1 F2704.5 X112.551 Y100.396 E25.32252
G1 F2750.4 X111.072 Y96.132 E25.54356
G1 F2812.5 X110.558 Y94.627 E25.61973
G1 F3182.7 X110.39 Y93.967 E25.64855
G1 F3600 X109.945 Y92.682 E25.69944
G1 X108.453 Y92.683 E25.75526
G1 X102.859 Y109.15 E26.406
G1 X102.669 Y109.366 E26.41677
G1 X102.374 Y109.483 E26.42864
G1 X102.113 Y109.466 E26.43843
G1 X101.914 Y109.395 E26.44633
G1 X101.693 Y109.187 E26.45769
G1 X101.595 Y108.934 E26.46784
G1 X101.595 Y92.683 E27.07592
G1 X100.295 Y92.683 E27.12456
G1 X100.294 Y111.432 E27.8261
G1 X103.201 Y111.431 E27.93488
G1 X107.793 Y97.698 E28.4767
G1 X108.277 Y96.223 E28.53478
G1 X108.717 Y94.837 E28.5892
G1 X108.923 Y94.547 E28.60251
G1 X109.213 Y94.421 E28.61434
G1 X109.374 Y94.414 E28.62037
G1 X109.708 Y94.509 E28.63336
G1 F3182.7 X110.022 Y94.813 E28.65186
G1 F2812.5 X110.521 Y96.321 E28.72793
G1 F2750.4 X111.997 Y100.604 E28.9498
G1 F2704.5 X113.473 Y104.887 E29.17544
G1 F2660.1 X114.95 Y109.17 E29.40486
G1 F3045.1 X115.096 Y109.843 E29.43532
G1 F3600 X115.643 Y111.432 E29.4982
G1 X118.13 Y111.432 E29.59126
G1 X118.13 Y92.683 E30.2928
G1 X116.83 Y92.683 E30.34145
G1 X116.83 Y108.655 E30.93908
G1 X116.709 Y108.937 E30.95056
G1 X116.455 Y109.14 E30.96273
G1 X116.236 Y109.196 E30.97119
G1 X115.866 Y109.148 E30.98515
G1 F3045.1 X115.509 Y108.923 E31.00381
M204 S5000
G0 F12000 X115.677 Y109.556
M204 S3000
G1 F3600 X115.374 Y109.273 E31.01933
G1 X115.964 Y110.982 E31.08698
G1 X117.68 Y110.982 E31.15119
G1 X117.68 Y109.401 E31.21034
G1 F3707.1 X117.693 Y108.567 E31.24065
G1 F3811.8 X117.693 Y93.12 E31.78653
G1 X117.267 Y93.12 E31.80159
G1 F3793.9 X117.267 Y108.727 E32.35572
G1 F3690.2 X117.073 Y109.203 E32.37448
G1 F3600 X116.635 Y109.553 E32.39546
G1 X116.313 Y109.639 E32.40793
G1 X115.677 Y109.556 E32.43193
M204 S5000
G0 F12000 X115.533 Y109.605
G0 X109.945 Y94.101
G0 X108.733 Y94.105
G0 X102.768 Y110.014
G0 X102.431 Y109.929
M204 S3000
G1 F3600 X102.036 Y109.909 E32.44673
G1 X101.694 Y109.788 E32.4603
G1 X101.314 Y109.429 E32.47986
G1 F3681.8 X101.158 Y109.01 E32.49622
G1 F3793.9 X101.158 Y93.12 E33.0604
G1 F3811.8 X100.732 Y93.12 E33.07545
G1 X100.732 Y108.849 E33.6313
